X:172
T:Sailor's Bonnet (reel), The  
B:CRE1.157 (Bairead an Mhairnealaigh)
F:file ID: cre.1/172sail_b
S:Matthew Tiernan
N:CRE shows this as an AABB tune, but most musicians today
play it as Coleman did [= ABB].
M:C
L:1/8
Q:180
R:reel
K:D
dB|:(3ABA FA dfef|dfec dBB2|(3ABA FA dfef|dBAF ADD2|
(3ABA FA dff/e/f|dfec dBB2|(3ABA FA dfef|dBAF ADD2:|
faab afdf|afef dBB/A/B|fbb2 bafa|b2af fee/d/e|
bff2 aff2|afef dBB2|(3ABA FA dff/e/f|dBAF ADD2:|

%%%

